docs/images/instagram.svg

<svg width="18" height="18" viewBox="0 0 18 18" fill="none" xmlns="http://www.w3.org/2000/svg">
<g clip-path="url(#clip0)">
<path d="M17.9825 5.29205C17.9403 4.33564 17.7857 3.67812 17.5641 3.10836C17.3355 2.50359 16.9839 1.96213 16.5232 1.51201C16.0731 1.05489 15.5281 0.699691 14.9303 0.474702C14.3573 0.253147 13.7032 0.0984842 12.7468 0.0563159C11.7832 0.0105764 11.4773 0 9.03349 0C6.58965 0 6.28376 0.0105764 5.32378 0.0527447C4.36737 0.0949129 3.70985 0.249713 3.14024 0.471131C2.53532 0.699691 1.99387 1.05132 1.54375 1.51201C1.08663 1.96213 0.731566 2.50716 0.50644 3.10493C0.284885 3.67812 0.130222 4.33207 0.0880542 5.28848C0.0423147 6.25203 0.0317383 6.55792 0.0317383 9.00176C0.0317383 11.4456 0.0423147 11.7515 0.0844829 12.7115C0.126651 13.6679 0.281451 14.3254 0.503006 14.8952C0.731566 15.4999 1.08663 16.0414 1.54375 16.4915C1.99387 16.9486 2.53889 17.3038 3.13667 17.5288C3.70985 17.7504 4.3638 17.905 5.32035 17.9472C6.28019 17.9895 6.58622 17.9999 9.03006 17.9999C11.4739 17.9999 11.7798 17.9895 12.7398 17.9472C13.6962 17.905 14.3537 17.7504 14.9233 17.5288C16.133 17.0611 17.0894 16.1047 17.5571 14.8952C17.7785 14.322 17.9333 13.6679 17.9755 12.7115C18.0177 11.7515 18.0282 11.4456 18.0282 9.00176C18.0282 6.55792 18.0247 6.25203 17.9825 5.29205ZM16.3616 12.6411C16.3228 13.5202 16.1752 13.9949 16.0521 14.3114C15.7496 15.0956 15.1273 15.7179 14.3431 16.0204C14.0266 16.1434 13.5485 16.2911 12.6729 16.3297C11.7235 16.372 11.4387 16.3824 9.03706 16.3824C6.63539 16.3824 6.34708 16.372 5.40111 16.3297C4.52204 16.2911 4.04734 16.1434 3.73087 16.0204C3.34064 15.8761 2.98544 15.6476 2.69713 15.3487C2.39824 15.0568 2.16968 14.7052 2.02546 14.315C1.90239 13.9985 1.75473 13.5202 1.71613 12.6447C1.67383 11.6953 1.66339 11.4104 1.66339 9.00876C1.66339 6.60709 1.67383 6.31878 1.71613 5.37295C1.75473 4.49387 1.90239 4.01917 2.02546 3.7027C2.16968 3.31234 2.39824 2.95727 2.7007 2.66883C2.99244 2.36994 3.34407 2.14138 3.73444 1.99729C4.05091 1.87422 4.52918 1.72656 5.40469 1.68783C6.35409 1.64566 6.63896 1.63508 9.04049 1.63508C11.4457 1.63508 11.7305 1.64566 12.6764 1.68783C13.5555 1.72656 14.0302 1.87422 14.3467 1.99729C14.7369 2.14138 15.0921 2.36994 15.3804 2.66883C15.6793 2.96071 15.9079 3.31234 16.0521 3.7027C16.1752 4.01917 16.3228 4.49731 16.3616 5.37295C16.4037 6.32236 16.4143 6.60709 16.4143 9.00876C16.4143 11.4104 16.4037 11.6917 16.3616 12.6411Z" fill="white"/>
<path d="M9.03313 4.37781C6.48037 4.37781 4.40918 6.44886 4.40918 9.00176C4.40918 11.5547 6.48037 13.6257 9.03313 13.6257C11.586 13.6257 13.6571 11.5547 13.6571 9.00176C13.6571 6.44886 11.586 4.37781 9.03313 4.37781ZM9.03313 12.0012C7.37703 12.0012 6.03369 10.658 6.03369 9.00176C6.03369 7.34552 7.37703 6.00232 9.03313 6.00232C10.6894 6.00232 12.0326 7.34552 12.0326 9.00176C12.0326 10.658 10.6894 12.0012 9.03313 12.0012Z" fill="white"/>
<path d="M14.9199 4.19498C14.9199 4.7911 14.4365 5.27446 13.8402 5.27446C13.2441 5.27446 12.7607 4.7911 12.7607 4.19498C12.7607 3.59871 13.2441 3.11549 13.8402 3.11549C14.4365 3.11549 14.9199 3.59871 14.9199 4.19498Z" fill="white"/>
</g>
<defs>
<clipPath id="clip0">
<rect width="18" height="18" fill="white"/>
</clipPath>
</defs>
</svg>

<svg width="18" height="18" fill="none" xmlns="http://www.w3.org/2000/svg"><g clip-path="url(#clip0)" fill="#fff"><path d="M17.983 5.292c-.043-.956-.197-1.614-.419-2.184a4.393 4.393 0 00-1.04-1.596A4.43 4.43 0 0014.93.475c-.573-.222-1.227-.377-2.183-.419C11.783.011 11.477 0 9.033 0c-2.443 0-2.75.01-3.71.053C4.368.095 3.71.25 3.14.47a4.392 4.392 0 00-1.596 1.041c-.457.45-.812.995-1.038 1.593C.285 3.678.13 4.332.088 5.288c-.046.964-.056 1.27-.056 3.714s.01 2.75.052 3.71c.043.956.197 1.613.419 2.183a4.439 4.439 0 001.04 1.596c.45.458.996.813 1.594 1.038.573.221 1.227.376 2.183.418.96.043 1.266.053 3.71.053s2.75-.01 3.71-.053c.956-.042 1.614-.197 2.183-.418a4.604 4.604 0 002.634-2.634c.222-.573.376-1.227.419-2.184.042-.96.052-1.265.052-3.71 0-2.443-.003-2.749-.045-3.709zm-1.621 7.35c-.04.878-.187 1.353-.31 1.67a2.986 2.986 0 01-1.709 1.708c-.316.123-.794.271-1.67.31-.95.042-1.234.052-3.636.052s-2.69-.01-3.636-.052c-.879-.039-1.354-.187-1.67-.31a2.77 2.77 0 01-1.034-.671 2.799 2.799 0 01-.672-1.034c-.123-.316-.27-.795-.309-1.67-.042-.95-.053-1.235-.053-3.636 0-2.402.01-2.69.053-3.636.039-.88.186-1.354.31-1.67.144-.39.372-.746.675-1.034a2.794 2.794 0 011.033-.672c.317-.123.795-.27 1.67-.31.95-.041 1.235-.052 3.636-.052 2.406 0 2.69.01 3.636.053.88.039 1.354.186 1.67.31.39.143.746.372 1.034.67.3.293.528.644.672 1.035.123.316.27.794.31 1.67.042.95.052 1.234.052 3.636 0 2.401-.01 2.683-.052 3.632z"/><path d="M9.033 4.378a4.625 4.625 0 000 9.248 4.625 4.625 0 000-9.248zm0 7.623a3 3 0 11.001-6 3 3 0 010 6zm5.887-7.806a1.08 1.08 0 11-2.16 0 1.08 1.08 0 012.16 0z"/></g><defs><clipPath id="clip0"><path fill="#fff" d="M0 0h18v18H0z"/></clipPath></defs></svg>
